-----BEGIN PGP SIGNATURE-----

iQHLBAABCgA1FiEE2P9Ep5zIph72lPp+uIPgExTajoQFAmqsPagXHGFuZHJldy53
b29kQGl2YXJjaC5jb20ACgkQuIPgExTajoS32Qv/eeVEEH2GNBuj15ozpztDQiwa
u7/sXv8myZUWx6j772giuNdItURyD4oRj0sVkCRmBrWIrlXpMjExmLgxlc7sSaGH
fBNgXygYaGFOZ2gXCDtgiXLOlkSIXeOZzc0nknpar/SBYnz1YJpfxbWcltTLrScO
LZvayEjX40eOnhngOV/2DzWaGQt2nZRNX/dv9RjhQEegWT2UFNf3Oj26tUzz3+Fq
ccngcIJVpWE+UaAprrqQAmYFiJ8wLwgQ7Ij905DOpTZSOesxS/BQrnhgQA61AgnG
z4hVBiL/tKDyFJ82y81FSmqJnsaW58zhb7VcPx68FjVWHAIkRO8oAhHX0RmwOeW9
jNvs/xgrS0G2m1RlX8UhGGJggsUwxhuCAiTtF5+HFKKHN/H/hH0or/1zi3JLIh3N
CxMyjqv5CZHQNpG7DC6gEmkpg/Pvwku9xD/IySD8mZ3CywpK9BasAUrXFaayHgg7
78tHTZ++EymjKhnbM7T8dtANMobriHpmtZ8Qi5gj
=Vclb
-----END PGP SIGNATURE-----
