-----BEGIN PGP SIGNATURE-----

iQIzBAABCgAdFiEESPjmn2OQyfJc/tzSaCSJWTWecisFAmpHahUACgkQaCSJWTWe
civa4A/7BxNLR91UAWTO87fRO1ttyc8D7kT/kCC7nGuTXPmTgCI5+MeJqfUnI1pu
X8vBUeh4iwlgjT/0k5CXszzDoRV4E4bZTSgpk/3mSEhdXEVeMRlc2WHsOqsI9WtR
v+5gsQvK/a+82vTwW9Z/LFXdsT8V7RVZ2viTWhxIVaF06J5Rohl01KtAAdPFFWbj
30n/Qfoo01Xl29sjAzu8MKa0kVSlhi+Li1LgPr68cZSO0Mrx+LHpQxMwUOTQKpWM
KpBJ0teWn/4XmI66CCfsXU1mlO7NgO7AdU+FW3X9ffCTKS8Vj+CRGliQhi+povKN
vb2QvlU7TOcfFcaip4m+1Ov4W7cRBnhtZ5h9fS2J++MDby7cN0fUu+mfrD38Bntv
7Em/ArGXz9qiiNeM3ONZhIA/ScwlfXRXsiISq3yxcP4KlX9/j3/w23KYqgVyFWSG
kHaTYwhkGvkfKCMG61KMhOKcTjWFeqCIvPwv/IUJkCn8FOQ130HIa3PTcP0fF2gN
KuEccByVi6N+OClFJH8iiEdMGqA6h5BBd6mmn+Op5Ux/Ncg+Vo6SZt4MxjHY/iZY
HIrrNyRkEvL+i2Xg1G6iAurSnQJkNAlXUQJmY6f00LcW6Lww/EWxiYYUvDxPhSha
AFaxI3HVPLbN9/TBuwcrwBBfrAkXinh6pYCJmTaBRiQNmwlneRI=
=m3zq
-----END PGP SIGNATURE-----
