-----BEGIN PGP SIGNATURE-----

wsFcBAABCgAQBQJqhy/XCRCFq5bm+hvl/gAA9ycP/RnA4M1g0EL6Q5Jmw+vADfJq
Ffvy6x3UdomV7gxHfJwM7OAw59sva4D864qFmSN/DlwfHkr/23lz8N5JLlcbcWM2
7ykJuxAGwGyiAoqMPzGMoLth0hK4OYgyPzywd9aPi6nKbWOCH7ycIBAvUn67QLWF
GDZsXlLbR8k5oXWBPL1PBx2br/RuoovkJHEOPYjtKxfvGVbl3kxuyAqLZUl2R9T3
eib2xOSOiFo2yYsxPMcH26270qUl4JhcCOU/hwQw15spKz6djD8rhSDkiRnSzDdl
Q3sAgbjCqBFYhQQDlLXZAiWM8FuNetlp5uZTrgSLoJwp32x1XInesNFHW7AFFWA8
wDrR8ik4NaocedtDUhn2P7LaZ1hjMtLPjRUsQxbHiFmBTCtqh1L90AbJ90Rz4+vM
hAKzkNZqgNi0+3tVpS3oz/SVoXPX+rvqu96mbKtODl+SzhCVkGNMXaOkqAbbhNdP
QSn98/v/DMVwf++DvLmaVsc1R/ZA8bxWFmQUeZF6h2ZQ7WnU5LwjvD4cOIr59Sm5
fX1DAa9ds2JBFycqfoDLM2T3Q5C6djTHFKLxUxHNZZ5jZAcERrAuJVW7RHge6xyW
N0vAFQXiR+Pjoiplm9Mf5GxwXrRXaZW1EUlSXf3urEskTMp+mVtZ98awgpKQDdL7
/sZup+S5l6lnGilAcknG
=UBzy
-----END PGP SIGNATURE-----
