-----BEGIN PGP SIGNATURE-----

iQIzBAABCAAdFiEE0zo/DKFrCsxRpgc4SUyKX79N7OsFAmqSLo4ACgkQSUyKX79N
7Ouzhg/8DitTlO84Uw6iVeEu7IqBipN12TocQD3DsaIwu2wRqxnJMiOeuMaTMstd
A6rtPDGJnjGLgLCP38c5766y+Ss6+FfyrWbLsEz3GHO47PMCmpS43uviO9SxSKFN
b5GxEwgzhfPm1CzRBN1O/22r2uHVRG1WmzsVzG0Ct7KfbY37XUREyiexVxCOob8h
dI+LaLOrwgkq3WzEaViXbRZrDgy0YvBJrvjrEAXJInYjatNIas2zP8JGisyvbLQn
j0M76zKeegZqMAF/hGGk5VLjlMXlp3Qw/INSzflNeb7N8M1LNaFgUCBv3clyZQnO
mi9zhRg7GUgiGUS+FqCJ7fdiI+R3vXE/U08Zbg6963APwACnfzN4ln7noTdRB0vm
u/+GlpcRBHHZGIUF/0GFQqKkjDeOere6UdWKCl/o5N0iDo0yKJh2eV2OSZf1IT+8
WsP/0yPK0LOGHw4oUFGr8/g/kfk8svOOcIiVZkMsPcq+6MYmvPt/9D73J/54Am6Y
nhV12lzdbfWst5CogzGNmoLXK159LFPBjf5RjZSvJTxkQydLBw8K0t86UC2uQJrc
2H8mZbHblUy0HuzjDMAkfwx76EBnh5m4F3QJh0b9/gZZYRzt2ER66cqA7LwsXpmH
i+ADEhbltFxOfzGxTLml+yep8AqkUdp1VgoJnCP9bQIH1saBOxM=
=9eby
-----END PGP SIGNATURE-----
