-----BEGIN PGP SIGNATURE-----

iQIzBAABCgAdFiEECpryEV9Gh70pgDoga3OjbmAm38oFAmpeM+4ACgkQa3OjbmAm
38p2vw//ZEABZhKVk3KCOQx+OJPffKKRSBFLjXGAz5Tyj6rqTPCHqIqFPaMUsl20
Zw9OFD+LT334yQnrKdlMnBq3b1LdrVYslwnOHB7jG88FfNcokQbImeFRzQY87tgN
UYH9HKFeYouwdz5NPvRb4p5rcBoc5znKi3Dx16LHTYXdIYK7xeqKH9+wDRg0Bb5V
KUgMtJNyKoMR2LVBZ33ZoJo/yA/Bps+RFoH08NoWuSvDVLYnssSQL/Y5h9UldV2n
JoEWLUQT9yczZGWgx6Ga7636719HGnVDRf4inV7oC+a0twNghKT4TRje3p++FDa7
hJzC/0geMwMI+T4IGuxVGKO2tcKpaxpdSVlp9ZE6WrFoGkpMOGN04vKvAEbNs3te
viyOCtzXZlRc/zD02pdC4WwIUH2xBXwB/adOsp31jfqspI0UPR6Z83GWbE5JTxA8
aBNGoUbdBKCP2Yu/7gRZOSFd6xJYtblkq7YnVDlDpjin72PwoHRwDu/guHTNLTuM
UlS+YGnNIW1x16R2+HaiwjOT3uCBAx4dxwyZG/byz1Nl0YQKcv31WwOx91Jezdz+
ZwAL91Ywj45r1YPJEs039NxgLCmH8bX5agd0lZ6RGRYSJc7gxe36FhV5/sjdBN8c
Lu+fNRYHlXPMwd/hiUHJtHJ/mFYUhtDG2yg6hvOOZzAFRD7ijVI=
=VryG
-----END PGP SIGNATURE-----
