-----BEGIN PGP SIGNATURE-----

iQIzBAABCgAdFiEEgn5lhghnlhjNNJ+TZ45FXXZ2eqMFAmp7rrAACgkQZ45FXXZ2
eqModw/5AdMenT9tc0Hf+sBvd8Yk8zaLe+7RflH3JVgAg0Dz3t0PZ5ZxC27EXpME
mz6zHdO/eYJh02oEb2eykmLWA2rwKL5A8jq1cxnmu0Cbfz787aQ2GfNtxGQLYgma
boz/3zPQJZ/nPfbUDriuKkvqhICY+z+BbzgEgzNZky6eCJdUYOwu/vq6b+6rBMYF
zvnCOZKVbAdmTVyG4D2yqo7kYNOHFscTjRpdVttPI2rXXyfFhitqDYiReqSj/MBk
+ti0F0ak/Pj8CmNiVZjvFoaihXrjUxT97tcOvJvUCqZ7u17LxZ0Y1xhgVRLA4U2T
24bY+ff+7kRKrcsH28k3CtEki7B+Wr7li3tD26551YOf1/tCpOcyXzObg1Ox5cce
W74wBXFD1o5VpqeVl/26nB4t9/IL0DordeQIYzM24wc6OZ6fxKTKzkLURxaDyJ57
kU6WSAIJ1naF8+aPjU6qikEHDLfOWFdbtPKCRqVQjHrVzWFqDIPhSjqP3E9ep0TC
DVZrXtcluG0+w9QzNBEtF0Ugr6ky0D7ZStm4I/AWsngU3L45QKKH6UPVMZX0/f01
NDLNbXcZOaX4jc6Yj02nT/ArTnwCUrLKFs0zszRLSnvZaeHJxBNuW+WRqYgoo03L
4Q6VfbFn5i/oRkS+kk1E2R2exm7ojGm0luWTeq0Ds+jo82Onw0o=
=Sd2I
-----END PGP SIGNATURE-----
