-----BEGIN PGP SIGNATURE-----

iQIzBAABCAAdFiEEwv5L0nHBObhsUz5GHpU+J9QxHlgFAmq6zxQACgkQHpU+J9Qx
Hlg4Wg//dqHXegP8XO+vW9EZUncTYjuHpMnuYQ/OSdjWCBqa/zlQcP9MboDiWTba
qdCOVnEzkXm7XOre2UpeS2DTWvt+R9pxdchLAK6itN8KxYqPjVvTSfy7i0VV7UqY
BhpzeEeSmVgQzj/c6dOQuSRrQcqP5sJp9VlG+rFU2WFNi13wbFV4R3vexEHu3CUj
eZdJwbxeSynV7Df/z1VusNdMmeBmNfvfSnYEwUwTamSNZuEuyJbpGvyvv56UlvMz
s9fkzfjzhJ6jIV14Dij6lhxG3qI7uWxgz30cUDJ7WBWHAsNUgf3Du6ozwRFdzd47
T+QTgJXrpfnN2pr2TTFpj7AN0pUgts3dI7SrLvtsS8sv0j9oj2hs1ui9Sinfq3Qz
RHcnR1KMkLO9ZhyWeuR5CWB06J68v/S5wTD78lnIjX1TksGAc51x0PkSULWrn9bY
BgE+KLBJOUzqhAYKiviD3Gh/Ux5jz8CWdxpMtPCAfozkmmgPcElQtrgrbQVzQmQ0
oC9JUDZoZJQNnyI5mVt9h9tsXdwPLvSND2p9TxOUVGxALdsGhkbeyDSc6Kc2bizA
NgbcrLfTM7cL5UGVKp6VWssP1tbAOBiB92Afaq8BVmahRBCeDrKGJabSaELPC93T
LLBuMgRXhEPRYzZPuh5URdxR7QrRfsxpA8j6PbTmf/DlLfK8M2A=
=4wem
-----END PGP SIGNATURE-----
