-----BEGIN PGP SIGNATURE-----

iQJEBAABCAAuFiEEwPw5LcreJtl1+l5K99NY+ylx4KYFAmpC1x8QHGF4Ym9lQGtl
cm5lbC5kawAKCRD301j7KXHgpsIyD/wIituNu8NJi2DEXtxlJ2sY8Wu0d+G/bSbj
83YLifj7+ipMe2b37DyewVcDAe7l0Oo/JrPI7TqGlxwHxAdlzAsl9jQq3UDvz+5P
uAnWTsWgP7WRX8dWBQtYxOmyyqdfjjSxPm86czX36Ja3CKjPXVp9FY6EXMWxxCQz
Hx0EZnyYWrX9DCRJQQA6dq64LfQkhepFI7vMgoQ55uVK0dKgDrawnRHrLxCf8B26
xUHJlPLg9SA7MoKckV95NTeAsYDWWGxtFnpZvvrOkzVEv8C4xLyZhWyOvi5PRzx7
fpq7gm/SpbWYXR/8LXsptS8w8RWah4xRMqwZkZJGNXf0tZCMXm2FTlfs6K+UhFfB
Kizittu5c+banDv9LBRR/mVWAGr9Xs1a8sCRwM12I/TE3cMIz8VURV1Qqo1GSibx
0MMAloSE1ckMS31fURWLjtYXBdtOasrWD8H/nFp6fhVDJeLqTpbA5WRFTwVxQ4bv
031mh8A0nPzKzv1/zsoCi6KHDNIYUkkeR0VXA5Rbdm0egXqCaOrRMkfVfc5RBRcS
brN/unxmiS0oS4+j4HsvWf0EEX6qFWENSwVGThf7+/oYNft3KQMBHihVpGBq7aUL
Hmi2MDsW61k68lWLIeOtlx6rGFQybcjtLZXJzOdGSmIkXLqX7clT8+CJtbHb1vGp
GBUb/cZ6RQ==
=St9n
-----END PGP SIGNATURE-----
